X: 15308
T: Girls Of Grallagh, The
R: jig
M: 6/8
K: Gmajor
|:GBd dBA|B2G GFG|E2 c cBA|GAB A2 D|
GBd dBA|B2G GFG|E2 c DFA|1 AGF G3:|2 AGF GBd||
|:dB/c/d edd|dgd B2 A|G2 E EDE|GAB A2 d|
dB/c/d edd|dgd B2 A|G2 E DBA|1 G3 GBd:|2 G3 G3||

